actions/22x22-dark/view-left-close.svg

<svg xmlns="http://www.w3.org/2000/svg" viewBox="0 0 22 22">
 <defs id="defs3051">
   <style type="text/css" id="current-color-scheme">
     .ColorScheme-Text {
       color:#f2f2f2;
     }
     </style>
 </defs>
   <path
      style="fill:currentColor;fill-opacity:1;stroke:none"
      d="m1.70928 3c-.39346 0-.70928.3368-.70928.75391v14.49218c0 .41711.31582.75391.70928.75391h18.58144c.39346 0 .70928-.3368.70928-.75391v-14.49218c0-.41711-.31582-.75391-.70928-.75391zm11.70045 1.34766h5.99116c.23888 0 .43109.20378.43109.45703v12.39062c0 .25326-.19221.45703-.43109.45703h-5.99116c-.23888 0-.4311-.20377-.4311-.45703v-12.39062c0-.25325.19222-.45703.4311-.45703zm-8.28851 3.31836c.14125 0 .26228.0534.36109.1582l1.55674 1.65039 1.55491-1.65039c.0988-.10476.21991-.1582.36109-.1582.14112 0 .26043.0534.35925.1582l.72033.76367c.0988.1047.14739.23119.14739.38086s-.0486.2761-.14739.38086l-1.55674 1.65039 1.55674 1.65039c.0988.10476.14739.23119.14739.38086s-.0486.2761-.14739.38086l-.72033.76367c-.0988.10476-.21813.1582-.35925.1582-.14118 0-.26228-.0535-.36109-.1582l-1.55491-1.64844-1.55674 1.64844c-.0988.10476-.21978.1582-.36109.1582-.14111 0-.26049-.0535-.35925-.1582l-.72033-.76367c-.0988-.10469-.14739-.23119-.14739-.38086s.0486-.2761.14739-.38086l1.55674-1.65039-1.55674-1.65039c-.0988-.1047-.14739-.23119-.14739-.38086s.0487-.2761.14739-.38086l.72033-.76367c.0988-.10476.21814-.1582.35925-.1582z"
      class="ColorScheme-Text" />
</svg>

<svg xmlns="http://www.w3.org/2000/svg" viewBox="0 0 22 22">
  <defs id="defs3051">
    <style type="text/css" id="current-color-scheme">
      .ColorScheme-Text {
        color:#f2f2f2
      }
      </style>
  </defs>
 <path 
     style="fill:currentColor;fill-opacity:1;stroke:none"      
	 class="ColorScheme-Text"
        d="M 1.70928,3 C 1.31582,3 1,3.3368 1,3.75391 L 1,18.24609 C 1,18.6632 1.31582,19 1.70928,19 l 18.58144,0 C 20.68418,19 21,18.6632 21,18.24609 L 21,3.75391 C 21,3.3368 20.68418,3 20.29072,3 L 1.70928,3 Z m 11.70045,1.34766 5.99116,0 c 0.23888,0 0.43109,0.20378 0.43109,0.45703 l 0,12.39062 c 0,0.25326 -0.19221,0.45703 -0.43109,0.45703 l -5.99116,0 c -0.23888,0 -0.4311,-0.20377 -0.4311,-0.45703 l 0,-12.39062 c 0,-0.25325 0.19222,-0.45703 0.4311,-0.45703 z M 5.12122,7.66602 c 0.14125,0 0.26228,0.0534 0.36109,0.1582 L 7.03905,9.47461 8.59396,7.82422 c 0.0988,-0.10476 0.21991,-0.1582 0.36109,-0.1582 0.14112,0 0.26043,0.0534 0.35925,0.1582 l 0.72033,0.76367 c 0.0988,0.1047 0.14739,0.23119 0.14739,0.38086 0,0.14967 -0.0486,0.2761 -0.14739,0.38086 L 8.47789,11 l 1.55674,1.65039 c 0.0988,0.10476 0.14739,0.23119 0.14739,0.38086 0,0.14967 -0.0486,0.2761 -0.14739,0.38086 L 9.3143,14.17578 c -0.0988,0.10476 -0.21813,0.1582 -0.35925,0.1582 -0.14118,0 -0.26228,-0.0535 -0.36109,-0.1582 L 7.03905,12.52734 5.48231,14.17578 c -0.0988,0.10476 -0.21978,0.1582 -0.36109,0.1582 -0.14111,0 -0.26049,-0.0535 -0.35925,-0.1582 L 4.04164,13.41211 c -0.0988,-0.10469 -0.14739,-0.23119 -0.14739,-0.38086 0,-0.14967 0.0486,-0.2761 0.14739,-0.38086 L 5.59838,11 4.04164,9.34961 C 3.94284,9.24491 3.89425,9.11842 3.89425,8.96875 c 0,-0.14967 0.0487,-0.2761 0.14739,-0.38086 L 4.76197,7.82422 c 0.0988,-0.10476 0.21814,-0.1582 0.35925,-0.1582 z"
     />
</svg>
